dist/img/arrow-page-right.svg

<svg width="46" height="46" viewBox="0 0 46 46" fill="none" xmlns="http://www.w3.org/2000/svg">
<path d="M23 45.5194C35.4031 45.5194 45.5193 35.4419 45.5193 23C45.5193 10.5581 35.4031 0.480621 23 0.480621C10.5969 0.480621 0.480591 10.5969 0.480591 23C0.480591 35.4031 10.5969 45.5194 23 45.5194ZM23 3.65892C33.6589 3.65892 42.3411 12.3411 42.3411 23C42.3411 33.6589 33.6589 42.3411 23 42.3411C12.3411 42.3411 3.65889 33.6589 3.65889 23C3.65889 12.3411 12.3411 3.65892 23 3.65892Z" fill="#380F54"/>
<path d="M17.8062 34.2403C18.1163 34.5504 18.5039 34.7054 18.9302 34.7054C19.3178 34.7054 19.7442 34.5504 20.0542 34.2403L30.2868 24.0078C30.5969 23.6977 30.7519 23.3101 30.7519 22.8837C30.7519 22.4574 30.5969 22.0698 30.2868 21.7597L20.0542 11.5271C19.4341 10.907 18.4263 10.907 17.8062 11.5271C17.186 12.1473 17.186 13.155 17.8062 13.7752L26.9147 22.8837L17.8062 31.9923C17.186 32.6124 17.186 33.6202 17.8062 34.2403Z" fill="#380F54"/>
</svg>

<svg width="46" height="46" fill="none" xmlns="http://www.w3.org/2000/svg"><path d="M23 45.52c12.403 0 22.52-10.078 22.52-22.52S35.402.48 23 .48C10.597.48.48 10.598.48 23 .48 35.403 10.598 45.52 23 45.52zm0-41.861c10.659 0 19.341 8.682 19.341 19.341S33.66 42.341 23 42.341 3.659 33.66 3.659 23 12.34 3.659 23 3.659z" fill="#380F54"/><path d="M17.806 34.24c.31.31.698.465 1.124.465.388 0 .814-.155 1.124-.465l10.233-10.232c.31-.31.465-.698.465-1.124 0-.427-.155-.814-.465-1.124L20.054 11.527a1.59 1.59 0 00-2.248 2.248l9.109 9.109-9.109 9.108a1.59 1.59 0 000 2.248z" fill="#380F54"/></svg>
